X:1
T:Title
%%score ( 1 2 ) { 3 | 4 }
L:1/8
Q:1/4=103
M:4/4
K:C
V:1 treble nm="Grand Piano, Soprano"
V:2 treble 
V:3 bass nm="Choir Pad, Bass"
V:4 bass 
V:1
 G2 G>G c2 z G | E2 F2 G2 EC | [CA]2 [CG]2 [DF]2 [CE]2 | [CE]4 [B,D]2 z2 | G2 G>G c2 z G | %5
w: By~R.~Frank~Lehman * * * *|||||
 E2 F2 G2 [GA]2 | z2 .d2 z4 | G4 z2 G2 | G4 z4 | d4 z4 | [EG]3 [EA] [EG]2 [EG]2 | %11
w: ||||||
 [Ge]4 [Ec]2 [EG]2 | [FG]3 [FA] [FG]2 [FG]2 | d4 z4 | [EG]3 [EA] [EG]2 [EG]2 | [Ge]4 [Ec]2 G2 | %16
w: |||||
 A2 B2 c2 d2 | z2 ^gb e'2 E2 | F2 G2 A2 B2 | z2 eg c'2 c2 | c4 z4 | [Gcf]6 [Ge]2 | [Fd]6 [Ec]2 | %23
w: |||||||
 [Ec]6 [A,C]2 | [A,C]2 [A,F]2 [A,F]2 [B,G]2 | [CA]6 [CA]2 | [_Ec]2 [D_B]2 [DB]2 [^CF]2 | %27
w: ||||
 [CA]6 [CA]2 | [^CA]2 [CE]2 [CA]2 [CG]2 | [DF]6 [CF]2 | [B,G]2 [B,D]2 [B,E]2 [B,F]2 | %31
w: ||||
 [_B,G]4 z2 [B,C]2 | [A,C]2 [A,A]2 [A,A]2 [B,G]2 | [CA]6 [CF]2 | [^CF]2 [CG]2 [C^G]2 [CF]2 | %35
w: ||||
 [CA]4 z2 F2 | E2 D2 C2 E2 | G2 E2 c2 G2 | [Ge]4 [Fd]4 | [Ec]6 G2 | G4 z4 | d4 z4 | %42
w: |||||||
 [EG]3 [EA] [EG]2 [EG]2 | [Ge]4 [Ec]2 [EG]2 | [FG]3 [FA] [FG]2 [FG]2 | d4 z4 | %46
w: ||||
 [EG]3 [EA] [EG]2 [EG]2 | [Ge]4 [Ec]2 G2 | A2 B2 c2 d2 | z2 ^gb e'2 E2 | F2 G2 A2 B2 | %51
w: |||||
 z2 eg c'2 c2 | c4 z4 | [Gcf]6 [Ge]2 | [Fd]6 [Ec]2 | [Ec]6 z2 |] %56
w: |||||
V:2
 x8 | x8 | x8 | x8 | x8 | x8 | [GB]2 G-[Gc] [GB]2 [^FA]2 | x8 | F3- [FA] [FG]2 [FG]2 | %9
 F4- [FG]2 [FG]2 | x8 | x8 | x8 | F4- [FG]2 [FG]2 | x8 | x8 | x8 | e6 z2 | x8 | c6 z2 | %20
 ^F4- [FB]2 [Fc]2 | x8 | x8 | x8 | x8 | x8 | x8 | x8 | x8 | x8 | x8 | x8 | x8 | x8 | x8 | x8 | x8 | %37
 x8 | x8 | x8 | F3- [FA] [FG]2 [FG]2 | F4- [FG]2 [FG]2 | x8 | x8 | x8 | F4- [FG]2 [FG]2 | x8 | x8 | %48
 x8 | e6 z2 | x8 | c6 z2 | ^F4- [FB]2 [Fc]2 | x8 | x8 | x8 |] %56
V:3
 G,2 G,>G, C2 z G, | E,2 F,2 G,2 E,C, | C2 C2 G,2 G,2 | G,6 z2 | G,2 G,>G, C2 z G, | %5
 E,2 F,2 G,2[K:treble] ^C2 | D2 DE D2 C2 | B,4 z2[K:bass] G,2 | G,2 G,2 G,2 G,2 | G,2 G,2 G,2 G,2 | %10
 G,2 G,2 G,2 G,2 | G,2 G,2 G,2 G,2 | G,2 G,2 G,2 G,2 | G,2 G,2 G,2 G,2 | G,2 G,2 G,2 G,2 | %15
 G,2 G,2 G,2 G,2 | A,2 B,2 C2 D2 | E6 E,2 | F,2 G,2 A,2 B,2 | C6 C2 | _E6 E2 | E6 C2 | B,6 C2 | %23
 C6 z2 | F,,2 C,2 F,2 z2 | F,,2 C,2 F,2 z2 | F,,2 B,,2 F,2 z2 | F,,2 C,2 F,2 z2 | A,,2 E,2 A,2 z2 | %29
 D,2 C,2 B,,2 A,,2 | G,,2 D,2 G,2 z2 | C,2 _B,,2 A,,2 G,,2 | F,,2 C,2 F,2 z2 | F,,2 B,,2 F,2 z2 | %34
 ^C,2 F,2 ^G,2 z2 | C,2 F,2 A,2 F,2 | E,2 D,2 C,2 E,2 | G,2 E,2[K:treble] C2 G,2 | C4 B,4 | %39
 C6[K:bass] G,2 | G,2 G,2 G,2 G,2 | G,2 G,2 G,2 G,2 | G,2 G,2 G,2 G,2 | G,2 G,2 G,2 G,2 | %44
 G,2 G,2 G,2 G,2 | G,2 G,2 G,2 G,2 | G,2 G,2 G,2 G,2 | G,2 G,2 G,2 G,2 | A,2 B,2 C2 D2 | E6 E,2 | %50
 F,2 G,2 A,2 B,2 | C6 C2 | _E6 E2 | E6 C2 | B,6 C2 | C6 z2 |] %56
V:4
 z8 | z8 | F,2 E,2 B,,2 C,2 | G,,6 z2 | z8 | z4 z2 _E,2 | D,2 B,,C, D,2 D,2 | G,4 z4 | %8
 B,,2 G,,2 B,,2 G,,2 | B,,2 G,,2 B,,2 G,,2 | C,2 G,,2 C,2 G,,2 | C,2 G,,2 C,2 G,,2 | %12
 B,,2 G,,2 B,,2 G,,2 | B,,2 G,,2 B,,2 G,,2 | C,2 G,,2 C,2 G,,2 | C,2 G,,2 C,2 C,2 | %16
 A,,2 B,,2 C,2 D,2 | E,6 E,,2 | F,,2 G,,2 A,,2 B,,2 | C,6 C,2 | ^G,6 G,2 | G,6 G,2 | G,6 [C,G,]2 | %23
 [C,G,]6 z2 | z8 | z8 | z8 | z8 | z8 | z8 | z8 | z8 | z8 | z8 | z8 | z8 | z8 | z8 | G,4 G,4 | %39
 [C,G,]6 z2 | B,,2 G,,2 B,,2 G,,2 | B,,2 G,,2 B,,2 G,,2 | C,2 G,,2 C,2 G,,2 | C,2 G,,2 C,2 G,,2 | %44
 B,,2 G,,2 B,,2 G,,2 | B,,2 G,,2 B,,2 G,,2 | C,2 G,,2 C,2 G,,2 | C,2 G,,2 C,2 C,2 | %48
 A,,2 B,,2 C,2 D,2 | E,6 E,,2 | F,,2 G,,2 A,,2 B,,2 | C,6 C,2 | ^G,6 G,2 | G,6 G,2 | G,6 [C,G,]2 | %55
 [C,G,]6 z2 |] %56

